;PYTHON CODE 
;FLAVOR:Marlin
M140 S40 ;Set bed temp
M105
M190 S40 ;Wait for bed to heat
M104 S215 ;Set hotend temp
M105
M109 S215 ;Wait for hotend to heat
M82 ;Absolute extrusion mode
G92 E0 ;Reset extruder
G28 ;Home all axes
G1 Z2.0 F3000 ;Move Z Axis up little to prevent scratching of Heat Bed
G1 X0.1 Y20 Z0.3 F5000.0 ;Move to start position
G1 X0.1 Y200.0 Z0.3 F1500.0 E15 ;Draw the first line
G1 X0.4 Y200.0 Z0.3 F5000.0 ;Move to side a little
G1 X0.4 Y20 Z0.3 F1500.0 E30 ;Draw the second line
G92 E0 ;Reset Extruder
G1 Z2.0 F3000 ;Move Z Axis up little to prevent scratching of Heat Bed
G1 X5 Y20 Z0.3 F5000.0 ;Move over to prevent blob squish
G92 E0
G92 E0
G1 F1200 
G0 F1200 X70.0 Y15.0 Z0.2 E0 
G1 F1200 E0 
M107 ;Fan off
G0 F1200 X70.0 Y15.0 
G0 F300 X70.0 Y15.0 Z0.2 
G1 F1200 X70.0 Y15.0 E0 
G1 F1200 
G0 F2000 X70.0 Y211.667 
G1 F1200 E0 
G1 F1200 X247.46 Y211.667 E5.97906900099587 
G1 F1200 X70.0 Y211.267 E5.992373055014327 
G1 F1200 X70.0 Y211.267 E11.971442056010197 
G1 F1200 X70.0 Y211.267 E6.971442056010197 
G0 F2000 X99.75 Y13.0 
G1 F1200 X99.75 Y191.0 E17.958266364315943 
G1 F1200 X99.35 Y191.0 E17.9715704183344 
G1 F1200 X99.35 Y13.0 E23.958394726640147 
G1 F1200 E18.958394726640147 
G0 F2000 X70.0 Y15.0 
G1 F1200 E23.958394726640147 

;LAYER VERTICAL 
G0 F1200 X71.15 Y13.0 
G1 F1200 E23.958394726640147 
G1 X70.0 Y15.0 E24.03512472664015 
G1 X71.15 Y17.0 E24.11185472664015 
G1 X70.0 Y19.0 E24.18858472664015 
G1 X71.15 Y21.0 E24.265314726640153 
G1 X70.0 Y23.0 E24.342044726640154 
G1 X71.15 Y25.0 E24.418774726640155 
G1 X70.0 Y27.0 E24.495504726640156 
G1 X71.15 Y29.0 E24.572234726640158 
G1 X70.0 Y31.0 E24.64896472664016 
G1 X71.15 Y33.0 E24.72569472664016 
G1 X70.0 Y35.0 E24.80242472664016 
G1 X71.15 Y37.0 E24.879154726640163 
G1 X70.0 Y39.0 E24.955884726640164 
G1 X71.15 Y41.0 E25.032614726640166 
G1 X70.0 Y43.0 E25.109344726640167 
G1 X71.15 Y45.0 E25.186074726640168 
G1 X70.0 Y47.0 E25.26280472664017 
G1 X71.15 Y49.0 E25.33953472664017 
G1 X70.0 Y51.0 E25.416264726640172 
G1 X71.15 Y53.0 E25.492994726640173 
G1 X70.0 Y55.0 E25.569724726640175 
G1 X71.15 Y57.0 E25.646454726640176 
G1 X70.0 Y59.0 E25.723184726640177 
G1 X71.15 Y61.0 E25.79991472664018 
G1 X70.0 Y63.0 E25.87664472664018 
G1 X71.15 Y65.0 E25.95337472664018 
G1 X70.0 Y67.0 E26.030104726640182 
G1 X71.15 Y69.0 E26.106834726640184 
G1 X70.0 Y71.0 E26.183564726640185 
G1 X71.15 Y73.0 E26.260294726640186 
G1 X70.0 Y75.0 E26.337024726640188 
G1 X71.15 Y77.0 E26.41375472664019 
G1 X70.0 Y79.0 E26.49048472664019 
G1 X71.15 Y81.0 E26.56721472664019 
G1 X70.0 Y83.0 E26.643944726640193 
G1 X71.15 Y85.0 E26.720674726640194 
G1 X70.0 Y87.0 E26.797404726640195 
G1 X71.15 Y89.0 E26.874134726640197 
G1 X70.0 Y91.0 E26.950864726640198 
G1 X71.15 Y93.0 E27.0275947266402 
G1 X70.0 Y95.0 E27.1043247266402 
G1 X71.15 Y97.0 E27.181054726640202 
G1 X70.0 Y99.0 E27.257784726640203 
G1 X71.15 Y101.0 E27.334514726640204 
G1 X70.0 Y103.0 E27.411244726640206 
G1 X71.15 Y105.0 E27.487974726640207 
G1 X70.0 Y107.0 E27.56470472664021 
G1 X71.15 Y109.0 E27.64143472664021 
G1 X70.0 Y111.0 E27.71816472664021 
G1 X71.15 Y113.0 E27.794894726640212 
G1 X70.0 Y115.0 E27.871624726640214 
G1 X71.15 Y117.0 E27.948354726640215 
G1 X70.0 Y119.0 E28.025084726640216 
G1 X71.15 Y121.0 E28.101814726640217 
G1 X70.0 Y123.0 E28.17854472664022 
G1 X71.15 Y125.0 E28.25527472664022 
G1 X70.0 Y127.0 E28.33200472664022 
G1 X71.15 Y129.0 E28.408734726640223 
G1 X70.0 Y131.0 E28.485464726640224 
G1 X71.15 Y133.0 E28.562194726640225 
G1 X70.0 Y135.0 E28.638924726640226 
G1 X71.15 Y137.0 E28.715654726640228 
G1 X70.0 Y139.0 E28.79238472664023 
G1 X71.15 Y141.0 E28.86911472664023 
G1 X70.0 Y143.0 E28.94584472664023 
G1 X71.15 Y145.0 E29.022574726640233 
G1 X70.0 Y147.0 E29.099304726640234 
G1 X71.15 Y149.0 E29.176034726640236 
G1 X70.0 Y151.0 E29.252764726640237 
G1 X71.15 Y153.0 E29.329494726640238 
G1 X70.0 Y155.0 E29.40622472664024 
G1 X71.15 Y157.0 E29.48295472664024 
G1 X70.0 Y159.0 E29.559684726640242 
G1 X71.15 Y161.0 E29.636414726640243 
G1 X70.0 Y163.0 E29.713144726640245 
G1 X71.15 Y165.0 E29.789874726640246 
G1 X70.0 Y167.0 E29.866604726640247 
G1 X71.15 Y169.0 E29.94333472664025 
G1 X70.0 Y171.0 E30.02006472664025 
G1 X71.15 Y173.0 E30.09679472664025 
G1 X70.0 Y175.0 E30.173524726640252 
G1 X71.15 Y177.0 E30.250254726640254 
G1 X70.0 Y179.0 E30.326984726640255 
G1 X71.15 Y181.0 E30.403714726640256 
G1 X70.0 Y183.0 E30.480444726640258 
G1 X71.15 Y185.0 E30.55717472664026 
G1 X70.0 Y187.0 E30.63390472664026 
G1 X71.15 Y189.0 E30.71063472664026 
G1 X70.0 Y191.0 E30.787364726640263 
G1 X71.15 Y193.0 E30.864094726640264 
G0 F1200 X73.457 
G1 X74.607 Y191.0 E30.940824726640265 
G1 X73.457 Y189.0 E31.017554726640267 
G1 X74.607 Y187.0 E31.094284726640268 
G1 X73.457 Y185.0 E31.17101472664027 
G1 X74.607 Y183.0 E31.24774472664027 
G1 X73.457 Y181.0 E31.324474726640272 
G1 X74.607 Y179.0 E31.401204726640273 
G1 X73.457 Y177.0 E31.477934726640274 
G1 X74.607 Y175.0 E31.554664726640276 
G1 X73.457 Y173.0 E31.631394726640277 
G1 X74.607 Y171.0 E31.70812472664028 
G1 X73.457 Y169.0 E31.78485472664028 
G1 X74.607 Y167.0 E31.86158472664028 
G1 X73.457 Y165.0 E31.938314726640282 
G1 X74.607 Y163.0 E32.015044726640284 
G1 X73.457 Y161.0 E32.09177472664028 
G1 X74.607 Y159.0 E32.16850472664028 
G1 X73.457 Y157.0 E32.24523472664028 
G1 X74.607 Y155.0 E32.321964726640275 
G1 X73.457 Y153.0 E32.39869472664027 
G1 X74.607 Y151.0 E32.47542472664027 
G1 X73.457 Y149.0 E32.55215472664027 
G1 X74.607 Y147.0 E32.628884726640266 
G1 X73.457 Y145.0 E32.70561472664026 
G1 X74.607 Y143.0 E32.78234472664026 
G1 X73.457 Y141.0 E32.85907472664026 
G1 X74.607 Y139.0 E32.93580472664026 
G1 X73.457 Y137.0 E33.012534726640254 
G1 X74.607 Y135.0 E33.08926472664025 
G1 X73.457 Y133.0 E33.16599472664025 
G1 X74.607 Y131.0 E33.24272472664025 
G1 X73.457 Y129.0 E33.319454726640245 
G1 X74.607 Y127.0 E33.39618472664024 
G1 X73.457 Y125.0 E33.47291472664024 
G1 X74.607 Y123.0 E33.54964472664024 
G1 X73.457 Y121.0 E33.626374726640236 
G1 X74.607 Y119.0 E33.703104726640234 
G1 X73.457 Y117.0 E33.77983472664023 
G1 X74.607 Y115.0 E33.85656472664023 
G1 X73.457 Y113.0 E33.93329472664023 
G1 X74.607 Y111.0 E34.010024726640225 
G1 X73.457 Y109.0 E34.08675472664022 
G1 X74.607 Y107.0 E34.16348472664022 
G1 X73.457 Y105.0 E34.24021472664022 
G1 X74.607 Y103.0 E34.316944726640216 
G1 X73.457 Y101.0 E34.393674726640214 
G1 X74.607 Y99.0 E34.47040472664021 
G1 X73.457 Y97.0 E34.54713472664021 
G1 X74.607 Y95.0 E34.62386472664021 
G1 X73.457 Y93.0 E34.700594726640205 
G1 X74.607 Y91.0 E34.7773247266402 
G1 X73.457 Y89.0 E34.8540547266402 
G1 X74.607 Y87.0 E34.9307847266402 
G1 X73.457 Y85.0 E35.007514726640196 
G1 X74.607 Y83.0 E35.08424472664019 
G1 X73.457 Y81.0 E35.16097472664019 
G1 X74.607 Y79.0 E35.23770472664019 
G1 X73.457 Y77.0 E35.31443472664019 
G1 X74.607 Y75.0 E35.391164726640184 
G1 X73.457 Y73.0 E35.46789472664018 
G1 X74.607 Y71.0 E35.54462472664018 
G1 X73.457 Y69.0 E35.62135472664018 
G1 X74.607 Y67.0 E35.698084726640175 
G1 X73.457 Y65.0 E35.77481472664017 
G1 X74.607 Y63.0 E35.85154472664017 
G1 X73.457 Y61.0 E35.92827472664017 
G1 X74.607 Y59.0 E36.005004726640166 
G1 X73.457 Y57.0 E36.081734726640164 
G1 X74.607 Y55.0 E36.15846472664016 
G1 X73.457 Y53.0 E36.23519472664016 
G1 X74.607 Y51.0 E36.31192472664016 
G1 X73.457 Y49.0 E36.388654726640155 
G1 X74.607 Y47.0 E36.46538472664015 
G1 X73.457 Y45.0 E36.54211472664015 
G1 X74.607 Y43.0 E36.61884472664015 
G1 X73.457 Y41.0 E36.695574726640146 
G1 X74.607 Y39.0 E36.772304726640144 
G1 X73.457 Y37.0 E36.84903472664014 
G1 X74.607 Y35.0 E36.92576472664014 
G1 X73.457 Y33.0 E37.00249472664014 
G1 X74.607 Y31.0 E37.079224726640135 
G1 X73.457 Y29.0 E37.15595472664013 
G1 X74.607 Y27.0 E37.23268472664013 
G1 X73.457 Y25.0 E37.30941472664013 
G1 X74.607 Y23.0 E37.386144726640126 
G1 X73.457 Y21.0 E37.46287472664012 
G1 X74.607 Y19.0 E37.53960472664012 
G1 X73.457 Y17.0 E37.61633472664012 
G1 X74.607 Y15.0 E37.69306472664012 
G1 X73.457 Y13.0 E37.769794726640114 
G0 F1200 X74.607 Y15.0 
G1 F1200 X76.914 Y15.0 
G0 F1200 X78.064 Y13.0 
G1 X76.914 Y15.0 E37.84652472664011 
G1 X78.064 Y17.0 E37.92325472664011 
G1 X76.914 Y19.0 E37.99998472664011 
G1 X78.064 Y21.0 E38.076714726640105 
G1 X76.914 Y23.0 E38.1534447266401 
G1 X78.064 Y25.0 E38.2301747266401 
G1 X76.914 Y27.0 E38.3069047266401 
G1 X78.064 Y29.0 E38.383634726640096 
G1 X76.914 Y31.0 E38.460364726640094 
G1 X78.064 Y33.0 E38.53709472664009 
G1 X76.914 Y35.0 E38.61382472664009 
G1 X78.064 Y37.0 E38.69055472664009 
G1 X76.914 Y39.0 E38.767284726640085 
G1 X78.064 Y41.0 E38.84401472664008 
G1 X76.914 Y43.0 E38.92074472664008 
G1 X78.064 Y45.0 E38.99747472664008 
G1 X76.914 Y47.0 E39.074204726640076 
G1 X78.064 Y49.0 E39.150934726640074 
G1 X76.914 Y51.0 E39.22766472664007 
G1 X78.064 Y53.0 E39.30439472664007 
G1 X76.914 Y55.0 E39.38112472664007 
G1 X78.064 Y57.0 E39.457854726640065 
G1 X76.914 Y59.0 E39.53458472664006 
G1 X78.064 Y61.0 E39.61131472664006 
G1 X76.914 Y63.0 E39.68804472664006 
G1 X78.064 Y65.0 E39.764774726640056 
G1 X76.914 Y67.0 E39.84150472664005 
G1 X78.064 Y69.0 E39.91823472664005 
G1 X76.914 Y71.0 E39.99496472664005 
G1 X78.064 Y73.0 E40.07169472664005 
G1 X76.914 Y75.0 E40.148424726640044 
G1 X78.064 Y77.0 E40.22515472664004 
G1 X76.914 Y79.0 E40.30188472664004 
G1 X78.064 Y81.0 E40.37861472664004 
G1 X76.914 Y83.0 E40.455344726640035 
G1 X78.064 Y85.0 E40.53207472664003 
G1 X76.914 Y87.0 E40.60880472664003 
G1 X78.064 Y89.0 E40.68553472664003 
G1 X76.914 Y91.0 E40.762264726640026 
G1 X78.064 Y93.0 E40.838994726640024 
G1 X76.914 Y95.0 E40.91572472664002 
G1 X78.064 Y97.0 E40.99245472664002 
G1 X76.914 Y99.0 E41.06918472664002 
G1 X78.064 Y101.0 E41.145914726640015 
G1 X76.914 Y103.0 E41.22264472664001 
G1 X78.064 Y105.0 E41.29937472664001 
G1 X76.914 Y107.0 E41.37610472664001 
G1 X78.064 Y109.0 E41.452834726640006 
G1 X76.914 Y111.0 E41.529564726640004 
G1 X78.064 Y113.0 E41.60629472664 
G1 X76.914 Y115.0 E41.68302472664 
G1 X78.064 Y117.0 E41.75975472664 
G1 X76.914 Y119.0 E41.836484726639995 
G1 X78.064 Y121.0 E41.91321472663999 
G1 X76.914 Y123.0 E41.98994472663999 
G1 X78.064 Y125.0 E42.06667472663999 
G1 X76.914 Y127.0 E42.143404726639986 
G1 X78.064 Y129.0 E42.220134726639984 
G1 X76.914 Y131.0 E42.29686472663998 
G1 X78.064 Y133.0 E42.37359472663998 
G1 X76.914 Y135.0 E42.45032472663998 
G1 X78.064 Y137.0 E42.527054726639975 
G1 X76.914 Y139.0 E42.60378472663997 
G1 X78.064 Y141.0 E42.68051472663997 
G1 X76.914 Y143.0 E42.75724472663997 
G1 X78.064 Y145.0 E42.833974726639966 
G1 X76.914 Y147.0 E42.91070472663996 
G1 X78.064 Y149.0 E42.98743472663996 
G1 X76.914 Y151.0 E43.06416472663996 
G1 X78.064 Y153.0 E43.14089472663996 
G1 X76.914 Y155.0 E43.217624726639954 
G1 X78.064 Y157.0 E43.29435472663995 
G1 X76.914 Y159.0 E43.37108472663995 
G1 X78.064 Y161.0 E43.44781472663995 
G1 X76.914 Y163.0 E43.524544726639945 
G1 X78.064 Y165.0 E43.60127472663994 
G1 X76.914 Y167.0 E43.67800472663994 
G1 X78.064 Y169.0 E43.75473472663994 
G1 X76.914 Y171.0 E43.831464726639936 
G1 X78.064 Y173.0 E43.908194726639934 
G1 X76.914 Y175.0 E43.98492472663993 
G1 X78.064 Y177.0 E44.06165472663993 
G1 X76.914 Y179.0 E44.13838472663993 
G1 X78.064 Y181.0 E44.215114726639925 
G1 X76.914 Y183.0 E44.29184472663992 
G1 X78.064 Y185.0 E44.36857472663992 
G1 X76.914 Y187.0 E44.44530472663992 
G1 X78.064 Y189.0 E44.522034726639916 
G1 X76.914 Y191.0 E44.598764726639914 
G1 X78.064 Y193.0 E44.67549472663991 
G0 F1200 X80.371 
G1 X81.521 Y191.0 E44.75222472663991 
G1 X80.371 Y189.0 E44.82895472663991 
G1 X81.521 Y187.0 E44.905684726639905 
G1 X80.371 Y185.0 E44.9824147266399 
G1 X81.521 Y183.0 E45.0591447266399 
G1 X80.371 Y181.0 E45.1358747266399 
G1 X81.521 Y179.0 E45.212604726639896 
G1 X80.371 Y177.0 E45.28933472663989 
G1 X81.521 Y175.0 E45.36606472663989 
G1 X80.371 Y173.0 E45.44279472663989 
G1 X81.521 Y171.0 E45.51952472663989 
G1 X80.371 Y169.0 E45.596254726639884 
G1 X81.521 Y167.0 E45.67298472663988 
G1 X80.371 Y165.0 E45.74971472663988 
G1 X81.521 Y163.0 E45.82644472663988 
G1 X80.371 Y161.0 E45.903174726639875 
G1 X81.521 Y159.0 E45.97990472663987 
G1 X80.371 Y157.0 E46.05663472663987 
G1 X81.521 Y155.0 E46.13336472663987 
G1 X80.371 Y153.0 E46.210094726639866 
G1 X81.521 Y151.0 E46.286824726639864 
G1 X80.371 Y149.0 E46.36355472663986 
G1 X81.521 Y147.0 E46.44028472663986 
G1 X80.371 Y145.0 E46.51701472663986 
G1 X81.521 Y143.0 E46.593744726639855 
G1 X80.371 Y141.0 E46.67047472663985 
G1 X81.521 Y139.0 E46.74720472663985 
G1 X80.371 Y137.0 E46.82393472663985 
G1 X81.521 Y135.0 E46.900664726639846 
G1 X80.371 Y133.0 E46.977394726639844 
G1 X81.521 Y131.0 E47.05412472663984 
G1 X80.371 Y129.0 E47.13085472663984 
G1 X81.521 Y127.0 E47.20758472663984 
G1 X80.371 Y125.0 E47.284314726639835 
G1 X81.521 Y123.0 E47.36104472663983 
G1 X80.371 Y121.0 E47.43777472663983 
G1 X81.521 Y119.0 E47.51450472663983 
G1 X80.371 Y117.0 E47.591234726639826 
G1 X81.521 Y115.0 E47.66796472663982 
G1 X80.371 Y113.0 E47.74469472663982 
G1 X81.521 Y111.0 E47.82142472663982 
G1 X80.371 Y109.0 E47.89815472663982 
G1 X81.521 Y107.0 E47.974884726639814 
G1 X80.371 Y105.0 E48.05161472663981 
G1 X81.521 Y103.0 E48.12834472663981 
G1 X80.371 Y101.0 E48.20507472663981 
G1 X81.521 Y99.0 E48.281804726639805 
G1 X80.371 Y97.0 E48.3585347266398 
G1 X81.521 Y95.0 E48.4352647266398 
G1 X80.371 Y93.0 E48.5119947266398 
G1 X81.521 Y91.0 E48.588724726639796 
G1 X80.371 Y89.0 E48.665454726639794 
G1 X81.521 Y87.0 E48.74218472663979 
G1 X80.371 Y85.0 E48.81891472663979 
G1 X81.521 Y83.0 E48.89564472663979 
G1 X80.371 Y81.0 E48.972374726639785 
G1 X81.521 Y79.0 E49.04910472663978 
G1 X80.371 Y77.0 E49.12583472663978 
G1 X81.521 Y75.0 E49.20256472663978 
G1 X80.371 Y73.0 E49.279294726639776 
G1 X81.521 Y71.0 E49.356024726639774 
G1 X80.371 Y69.0 E49.43275472663977 
G1 X81.521 Y67.0 E49.50948472663977 
G1 X80.371 Y65.0 E49.58621472663977 
G1 X81.521 Y63.0 E49.662944726639765 
G1 X80.371 Y61.0 E49.73967472663976 
G1 X81.521 Y59.0 E49.81640472663976 
G1 X80.371 Y57.0 E49.89313472663976 
G1 X81.521 Y55.0 E49.969864726639756 
G1 X80.371 Y53.0 E50.04659472663975 
G1 X81.521 Y51.0 E50.12332472663975 
G1 X80.371 Y49.0 E50.20005472663975 
G1 X81.521 Y47.0 E50.27678472663975 
G1 X80.371 Y45.0 E50.353514726639744 
G1 X81.521 Y43.0 E50.43024472663974 
G1 X80.371 Y41.0 E50.50697472663974 
G1 X81.521 Y39.0 E50.58370472663974 
G1 X80.371 Y37.0 E50.660434726639735 
G1 X81.521 Y35.0 E50.73716472663973 
G1 X80.371 Y33.0 E50.81389472663973 
G1 X81.521 Y31.0 E50.89062472663973 
G1 X80.371 Y29.0 E50.967354726639726 
G1 X81.521 Y27.0 E51.044084726639724 
G1 X80.371 Y25.0 E51.12081472663972 
G1 X81.521 Y23.0 E51.19754472663972 
G1 X80.371 Y21.0 E51.27427472663972 
G1 X81.521 Y19.0 E51.351004726639715 
G1 X80.371 Y17.0 E51.42773472663971 
G1 X81.521 Y15.0 E51.50446472663971 
G1 X80.371 Y13.0 E51.58119472663971 
G0 F1200 X81.521 Y15.0 
G1 F1200 X83.828 Y15.0 
G0 F1200 X84.978 Y13.0 
G1 X83.828 Y15.0 E51.657924726639706 
G1 X84.978 Y17.0 E51.734654726639704 
G1 X83.828 Y19.0 E51.8113847266397 
G1 X84.978 Y21.0 E51.8881147266397 
G1 X83.828 Y23.0 E51.9648447266397 
G1 X84.978 Y25.0 E52.041574726639695 
G1 X83.828 Y27.0 E52.11830472663969 
G1 X84.978 Y29.0 E52.19503472663969 
G1 X83.828 Y31.0 E52.27176472663969 
G1 X84.978 Y33.0 E52.348494726639686 
G1 X83.828 Y35.0 E52.425224726639684 
G1 X84.978 Y37.0 E52.50195472663968 
G1 X83.828 Y39.0 E52.57868472663968 
G1 X84.978 Y41.0 E52.65541472663968 
G1 X83.828 Y43.0 E52.732144726639675 
G1 X84.978 Y45.0 E52.80887472663967 
G1 X83.828 Y47.0 E52.88560472663967 
G1 X84.978 Y49.0 E52.96233472663967 
G1 X83.828 Y51.0 E53.039064726639666 
G1 X84.978 Y53.0 E53.11579472663966 
G1 X83.828 Y55.0 E53.19252472663966 
G1 X84.978 Y57.0 E53.26925472663966 
G1 X83.828 Y59.0 E53.34598472663966 
G1 X84.978 Y61.0 E53.422714726639654 
G1 X83.828 Y63.0 E53.49944472663965 
G1 X84.978 Y65.0 E53.57617472663965 
